svg/white/btm.svg

<svg xmlns="http://www.w3.org/2000/svg" width="32" height="32" viewBox="0 0 32 32">
  <path fill="#FFF" d="M10.8269,15.3755 L12.5716,11.6768 L7.2306,17.0201 L6,18.2484 L9.8942,22.1058 L9.0822,19.0742 L10.8269,15.3755 L9.0822,19.0742 L14.5244,13.632 L12.5716,11.6768 L10.8269,15.3755 Z M16,32 C7.163444,32 0,24.836556 0,16 C0,7.163444 7.163444,0 16,0 C24.836556,0 32,7.163444 32,16 C32,24.836556 24.836556,32 16,32 Z M12.9258,9.0822 L18.368,14.5244 L13.7516,6 L9.8919,9.8942 L12.9258,9.0822 Z M19.0742,22.9178 L13.632,17.4756 L18.2484,26 L22.1058,22.1058 L19.0742,22.9178 Z M20.0403,9.3399 L22.1058,9.8919 L22.9201,12.9235 L17.4756,18.368 L19.4284,20.3209 L26,13.7516 L24.3623,7.6377 L18.2484,6 L17.4756,6.7752 L20.0403,9.3399 Z M13.7516,26 L14.5244,25.2248 L11.9598,22.6579 L9.8942,22.1058 L6,18.2484 L7.64,24.36 L13.7516,26 Z M26,18.2484 L25.2248,17.4756 L22.6602,20.0403 L22.1058,22.1058 L18.2484,26 L24.3623,24.3623 L26,18.2484 Z M6,13.7516 L6.7752,14.5244 L9.3399,11.9575 L9.8919,9.8942 L13.7516,6 L7.64,7.6377 L6,13.7516 Z M20.3209,12.5693 L14.9799,7.2306 L13.7516,6 L18.368,14.5244 L20.3209,12.5693 Z M11.6791,19.4284 L18.2484,26 L13.632,17.4756 L11.6791,19.4284 Z"/>
</svg>

<svg xmlns="http://www.w3.org/2000/svg" width="32" height="32"><path fill="#FFF" d="M10.827 15.376l1.745-3.7L7.23 17.02 6 18.248l3.894 3.858-.812-3.032 1.745-3.699-1.745 3.7 5.442-5.443-1.952-1.955-1.745 3.699zM16 32C7.163 32 0 24.837 0 16S7.163 0 16 0s16 7.163 16 16-7.163 16-16 16zM12.926 9.082l5.442 5.442L13.752 6l-3.86 3.894 3.034-.812zm6.148 13.836l-5.442-5.442L18.248 26l3.858-3.894-3.032.812zM20.04 9.34l2.066.552.814 3.032-5.444 5.444 1.952 1.953L26 13.75l-1.638-6.113L18.248 6l-.772.775L20.04 9.34zM13.752 26l.772-.775-2.564-2.567-2.066-.552L6 18.248l1.64 6.112L13.752 26zM26 18.248l-.775-.772-2.565 2.564-.554 2.066L18.248 26l6.114-1.638L26 18.248zM6 13.752l.775.772 2.565-2.566.552-2.064L13.752 6 7.64 7.638 6 13.752zm14.32-1.183l-5.34-5.338L13.752 6l4.616 8.524 1.953-1.955zm-8.64 6.86L18.247 26l-4.616-8.524-1.953 1.952z"/></svg>
